images/youtube-icon.svg

<svg width="48" height="48" viewBox="0 0 48 48" fill="none" xmlns="http://www.w3.org/2000/svg">
<path fill-rule="evenodd" clip-rule="evenodd" d="M0 24C0 10.7452 10.7452 0 24 0C37.2548 0 48 10.7452 48 24C48 37.2548 37.2548 48 24 48C10.7452 48 0 37.2548 0 24ZM36.265 18.0732C35.9706 16.9422 35.1031 16.0516 34.0016 15.7493C32.0054 15.2 24 15.2 24 15.2C24 15.2 15.9946 15.2 13.9983 15.7493C12.8967 16.0516 12.0292 16.9422 11.7348 18.0732C11.2 20.123 11.2 24.4 11.2 24.4C11.2 24.4 11.2 28.6768 11.7348 30.7268C12.0292 31.8578 12.8967 32.7484 13.9983 33.0508C15.9946 33.6 24 33.6 24 33.6C24 33.6 32.0054 33.6 34.0016 33.0508C35.1031 32.7484 35.9706 31.8578 36.265 30.7268C36.8 28.6768 36.8 24.4 36.8 24.4C36.8 24.4 36.8 20.123 36.265 18.0732Z" fill="black"/>
<path fill-rule="evenodd" clip-rule="evenodd" d="M21.6 28.8V20.8L28 24.8001L21.6 28.8Z" fill="black"/>
</svg>

<svg width="48" height="48" fill="none" xmlns="http://www.w3.org/2000/svg"><path fill-rule="evenodd" clip-rule="evenodd" d="M0 24C0 10.745 10.745 0 24 0s24 10.745 24 24-10.745 24-24 24S0 37.255 0 24zm36.265-5.927a3.253 3.253 0 00-2.263-2.324C32.005 15.2 24 15.2 24 15.2s-8.005 0-10.002.55a3.248 3.248 0 00-2.263 2.323C11.2 20.123 11.2 24.4 11.2 24.4s0 4.277.535 6.327a3.253 3.253 0 002.263 2.324C15.995 33.6 24 33.6 24 33.6s8.005 0 10.002-.55a3.248 3.248 0 002.263-2.323c.535-2.05.535-6.327.535-6.327s0-4.277-.535-6.327z" fill="#000"/><path fill-rule="evenodd" clip-rule="evenodd" d="M21.6 28.8v-8l6.4 4-6.4 4z" fill="#000"/></svg>
